X: 20
T:London March,The. JMT.020
M:C
L:1/8
Q:140
S:J.Moore,Tyneside,1841.(14a)
R:March
O:England
A:Northumbria
N:Irregular (bar missed out in the B music
Z:vmp.John Adam
K:D
|:F2 FF F2 E2| DFAc B2 A2 | Bd Ad Gd Fd | E>DEF E4 |!
 F2 FF F2 E2 | DFAdB2 A2 | Bd Ad FA dg | f2 e2 d2 :|:!
(3agf | efge f2 e2 ""| d2 de f2 fa | a2 (3 agf f2 e2 | f2 ff f2 e2 |!
 df Ad B2 A2 | Bd Ad Gd Fd |  E>DEF E4 | F2 FF F2 E2 |!
 DFAd B2 A2 | Bd Ad FA dg | f2 e2 d4 :||
W:Try repeating the first bar.
